X: 42942
T: William Southern Clarke's
R: hornpipe
M: 4/4
K: Dmajor
(3ABc|:d2fd cdBc|ABAG FDFA|BGBd cA(3cde|dfaf gfec|
d2fd cdBc|ABAG FDFA|BGBd cA(3cde|1 dfec d2 (3ABc:|2 dfec d2 A2||
~f3f afdf|~g3e ceA2|~f3f afdf|(3efe (3dcB A2de|
~f3f afdf|~g3e bgfg|abge fgec|d2f2 d4:|

